X:1
T:Silent Night
T:Silent Night
T:Franz Gruber Arr. Nathan Ramos
C:Franz Gruber Arr. Nathan Ramos
%%score { ( 1 2 ) | ( 3 4 ) }
L:1/8
Q:1/4=83
M:3/4
K:G
V:1 treble-8 nm="Guitar" snm="Guit."
V:2 treble-8 
V:3 tab stafflines=6 strings=E2,A2,D3,G3,B3,E4 nostems 
V:4 tab stafflines=6 strings=E2,A2,D3,G3,B3,E4 nostems 
V:1
"G" d3 e d2 | B6 | d3 e d2 | B6 |"D" a4 a2 | f6 |"G" g4 g2 | d6 |"C" e4 e2 | g3 f e2 |"G" d3 e d2 | %11
 B6 |"C" e4 e2 | g3 f e2 |"G" d3 e d2 | B6 |"D" a4 a2 | c'3 a f2 |"G" g6 | b6 | g2 d2 B2 | %21
"D" d3 c A2 |"G" G6- | G6 ||"G""^Let Ring" d3 e d2 | B6 | d3 e d2 | B6 |"D" a4 a2 | f6 |"G" g4 g2 | %31
 d6 |"C" e4 e2 | g3 f e2 |"G" d3 e d2 | B6 |"C" e4 e2 | g3 f e2 |"G" d3 e d2 | B6 |"D" a4 a2 | %41
 c'3 a f2 |"G""^poco ritard."[Q:1/4=82] g6[Q:1/4=81] |[Q:1/4=80] b6[Q:1/4=79] | %44
[Q:1/4=78] g2[Q:1/4=75] d2[Q:1/4=72] B2 |"D"[Q:1/4=70]"^molto ritard." d3 c A2 | %46
"G"[Q:1/4=65] G6-[Q:1/4=60][Q:1/4=50] | G6 |] %48
V:2
 G,6 | G,6 | G,6 | G,6 | D6 | D6 | G,6 | G,6 | C6 | E3 D C2 | B,3 C B,2 | G,6 | C4 C2 | E3 D C2 | %14
 B,3 C B,2 | G,6 | D6 | D6 | G,6 | G,6 | G,6 | D6 | G,6- | G,6 || G,B, [DG]4 | G,{/A,}B, DG DB, | %26
 G,B, [DG]4 | G,{/A,}B, DG DB, | DA dA- AA | Dd AD df | G,B GD- DB | G,G DG, A,B, | CE GE CD | %33
 EB GD CB | B,D GC B,G | G,G DG, A,B, | CE GE CD | EB GD CB | B,D GC B,G | G,G DG, A,B, | %40
 DA dA DA | DA d2 d2 | G,D GD B2 | G,D GD B2 | G,D- DG- GG | DA A,4 | G,D GD{/A,} B,D | G,6 |] %48
V:3
 !2!D3 !1!E !2!D2 | !2!B,6 | !2!D3 !1!E !2!D2 | !2!B,6 | !1!A4 !1!A2 | !1!F6 | !1!G4 !1!G2 | %7
 !2!D6 | !1!E4 !1!E2 | !1!G3 !1!F !1!E2 | !2!D3 !1!E !2!D2 | !2!B,6 | !1!E4 !1!E2 | %13
 !1!G3 !1!F !1!E2 | !2!D3 !1!E !2!D2 | !2!B,6 | !1!A4 !1!A2 | !1!c3 !1!A !2!F2 | !1!G6 | !1!B6 | %20
 !1!G2 !2!D2 !2!B,2 | !2!D3 !2!C !3!A,2 | !3!G,6- | !3!G,6 || !2!D3 !1!E !2!D2 | !2!B,6 | %26
 !2!D3 !1!E !2!D2 | !2!B,6 | !1!A4 !1!A2 | !1!F6 | !1!G4 !1!G2 | !2!D6 | !1!E4 !1!E2 | %33
 !1!G3 !1!F !1!E2 | !2!D3 !1!E !2!D2 | !2!B,6 | !1!E4 !1!E2 | !1!G3 !1!F !1!E2 | !2!D3 !1!E !2!D2 | %39
 !2!B,6 | !1!A4 !1!A2 | !1!c3 !1!A !2!F2 | !1!G6 | !1!B6 | !1!G2 !2!D2 !2!B,2 | !2!D3 !2!C !3!A,2 | %46
 !3!G,6- | !3!G,6 |] %48
V:4
 !6!G,,6 | !6!G,,6 | !6!G,,6 | !6!G,,6 | !4!D,6 | !4!D,6 | !6!G,,6 | !6!G,,6 | !5!C,6 | %9
 !4!E,3 !4!D, !5!C,2 | !5!B,,3 !5!C, !5!B,,2 | !6!G,,6 | !5!C,4 !5!C,2 | !4!E,3 !4!D, !5!C,2 | %14
 !5!B,,3 !5!C, !5!B,,2 | !6!G,,6 | !4!D,6 | !4!D,6 | !6!G,,6 | !6!G,,6 | !6!G,,6 | !4!D,6 | %22
 !6!G,,6- | !6!G,,6 || !6!G,, !5!B,, [!4!D,!3!G,]4 | %25
 !6!G,,{/!5!A,,} !5!B,, !4!D, !3!G, !4!D, !5!B,, | !6!G,, !5!B,, [!4!D,!3!G,]4 | %27
 !6!G,,{/!5!A,,} !5!B,, !4!D, !3!G, !4!D, !5!B,, | !4!D, !3!A, !2!D !3!A,- !3!A, !3!A, | %29
 !4!D, !2!D !3!A, !4!D, !2!D !1!F | !6!G,, !2!B, !3!G, !4!D,- !4!D, !2!B, | %31
 !6!G,, !3!G, !4!D, !6!G,, !5!A,, !5!B,, | !5!C, !4!E, !3!G, !4!E, !5!C, !4!D, | %33
 !4!E, !2!B, !3!G, !4!D, !5!C, !2!B, | !5!B,, !4!D, !3!G, !5!C, !5!B,, !3!G, | %35
 !6!G,, !3!G, !4!D, !6!G,, !5!A,, !5!B,, | !5!C, !4!E, !3!G, !4!E, !5!C, !4!D, | %37
 !4!E, !2!B, !3!G, !4!D, !5!C, !2!B, | !5!B,, !4!D, !3!G, !5!C, !5!B,, !3!G, | %39
 !6!G,, !3!G, !4!D, !6!G,, !6!A,, !6!B,, | !5!D, !4!A, !3!D !4!A, !5!D, !4!A, | %41
 !5!D, !4!A, !3!D2 !3!D2 | !6!G,, !4!D, !3!G, !4!D, !2!B,2 | !6!G,, !4!D, !3!G, !4!D, !2!B,2 | %44
 !6!G,, !4!D,- !4!D, !3!G,- !3!G, !3!G, | !4!D, !3!A, !5!A,,4 | %46
 !6!G,, !4!D, !3!G, !4!D,{/!5!A,,} !5!B,, !4!D, | !6!G,,6 |] %48

